assets/img/backimg.svg

<svg xmlns="http://www.w3.org/2000/svg" xmlns:xlink="http://www.w3.org/1999/xlink" preserveAspectRatio="none"
    width="190" height="50">
    <defs>
        <path fill="#FFF" d="M190 50V0H0v50h190z" id="prefix__a" />
        <path
            d="M82.85 33.3v-5.65q0-4.6-3.35-7.95-3.4-3.35-7.95-3.35h-11.3V5h-5.7v39.65h17q4.55 0 7.95-3.4 3.35-3.3 3.35-7.95M71.55 22q2.3 0 3.95 1.65 1.7 1.7 1.7 4v5.65q0 2.25-1.7 4-1.65 1.65-3.95 1.65h-11.3V22h11.3m28.25-5.65q-4.65 0-8.05 3.25-3.25 3.35-3.25 8.05v5.65q0 4.7 3.25 8 3.4 3.35 8.05 3.35 3.55 0 7.8-4.3l3.55-3.5v7.8h5.6v-28.3H99.8m-3.95 7.3Q97.5 22 99.8 22h11.35v8.5l-5.7 5.6q-2.8 2.85-5.65 2.85-2.3 0-3.95-1.65-1.65-1.75-1.65-4v-5.65q0-2.3 1.65-4m37.8-7.3q-4.6 0-7.95 3.35-3.35 3.35-3.35 7.95v5.65q0 4.65 3.35 7.95 3.35 3.4 7.95 3.4h17v-5.7h-17q-2.3 0-3.95-1.65-1.7-1.75-1.7-4v-5.65q0-2.3 1.7-4 1.65-1.65 3.95-1.65h5.65q2.35 0 3.95 1.65 1.7 1.7 1.7 4h5.7q0-4.6-3.45-7.95-3.3-3.35-7.9-3.35h-5.65m49.1 0h-7.7L161.9 29.4V5h-5.6v39.65h5.6V37.2l5.7-5.7 13 13.15h3.95v-3.9l-13.1-13.1 11.3-11.3z"
            id="prefix__b" />
        <path d="M24.65 5.15L4.95 24.9l19.7 19.75V5.15m19.75 39.5V5.15L24.65 24.9 44.4 44.65z" id="prefix__c" />
    </defs>
    <use xlink:href="#prefix__a" />
    <use xlink:href="#prefix__b" transform="translate(.45 .2)" />
    <use xlink:href="#prefix__c" transform="translate(.05 .1)" />
</svg>

<svg xmlns="http://www.w3.org/2000/svg" version="1.1" xmlns:xlink="http://www.w3.org/1999/xlink" preserveAspectRatio="none" x="0px" y="0px" width="190px" height="50px" viewBox="0 0 190 50">
<defs>
<g id="Layer2_0_FILL">
<path fill="#FFFFFF" stroke="none" d="
M 190 50
L 190 0 0 0 0 50 190 50 Z"/>
</g>

<g id="Layer1_0_FILL">
<path fill="#000000" stroke="none" d="
M 82.85 33.3
L 82.85 27.65
Q 82.85 23.05 79.5 19.7 76.1 16.35 71.55 16.35
L 60.25 16.35 60.25 5 54.55 5 54.55 44.65 71.55 44.65
Q 76.1 44.65 79.5 41.25 82.85 37.95 82.85 33.3
M 71.55 22
Q 73.85 22 75.5 23.65 77.2 25.35 77.2 27.65
L 77.2 33.3
Q 77.2 35.55 75.5 37.3 73.85 38.95 71.55 38.95
L 60.25 38.95 60.25 22 71.55 22
M 99.8 16.35
Q 95.15 16.35 91.75 19.6 88.5 22.95 88.5 27.65
L 88.5 33.3
Q 88.5 38 91.75 41.3 95.15 44.65 99.8 44.65 103.35 44.65 107.6 40.35
L 111.15 36.85 111.15 44.65 116.75 44.65 116.75 16.35 99.8 16.35
M 95.85 23.65
Q 97.5 22 99.8 22
L 111.15 22 111.15 30.5 105.45 36.1
Q 102.65 38.95 99.8 38.95 97.5 38.95 95.85 37.3 94.2 35.55 94.2 33.3
L 94.2 27.65
Q 94.2 25.35 95.85 23.65
M 133.65 16.35
Q 129.05 16.35 125.7 19.7 122.35 23.05 122.35 27.65
L 122.35 33.3
Q 122.35 37.95 125.7 41.25 129.05 44.65 133.65 44.65
L 150.65 44.65 150.65 38.95 133.65 38.95
Q 131.35 38.95 129.7 37.3 128 35.55 128 33.3
L 128 27.65
Q 128 25.35 129.7 23.65 131.35 22 133.65 22
L 139.3 22
Q 141.65 22 143.25 23.65 144.95 25.35 144.95 27.65
L 150.65 27.65
Q 150.65 23.05 147.2 19.7 143.9 16.35 139.3 16.35
L 133.65 16.35
M 182.75 16.35
L 175.05 16.35 161.9 29.4 161.9 5 156.3 5 156.3 44.65 161.9 44.65 161.9 37.2 167.6 31.5 180.6 44.65 184.55 44.65 184.55 40.75 171.45 27.65 182.75 16.35 Z"/>
</g>

<g id="Layer0_0_FILL">
<path fill="#000000" stroke="none" d="
M 24.65 5.15
L 4.95 24.9 24.65 44.65 24.65 24.9 24.65 5.15
M 44.4 44.65
L 44.4 5.15 24.65 24.9 44.4 44.65 Z"/>
</g>
</defs>

<g transform="matrix( 1, 0, 0, 1, 0,0) ">
<use xlink:href="#Layer2_0_FILL"/>
</g>

<g transform="matrix( 1, 0, 0, 1, 0.45,0.2) ">
<use xlink:href="#Layer1_0_FILL"/>
</g>

<g transform="matrix( 1, 0, 0, 1, 0.05,0.1) ">
<use xlink:href="#Layer0_0_FILL"/>
</g>
</svg>
